assets/img/basket-ico.svg

<svg width="15" height="14" viewBox="0 0 15 14" fill="none" xmlns="http://www.w3.org/2000/svg">
<path d="M5.77134 13.5C6.40877 13.5 6.92552 12.9883 6.92552 12.357C6.92552 11.7258 6.40877 11.214 5.77134 11.214C5.1339 11.214 4.61716 11.7258 4.61716 12.357C4.61716 12.9883 5.1339 13.5 5.77134 13.5Z" fill="white"/>
<path d="M10.1127 13.5C10.7501 13.5 11.2669 12.9883 11.2669 12.357C11.2669 11.7258 10.7501 11.214 10.1127 11.214C9.47524 11.214 8.95849 11.7258 8.95849 12.357C8.95849 12.9883 9.47524 13.5 10.1127 13.5Z" fill="white"/>
<path d="M12.7979 8.24887L14.966 3.27767C15.0214 3.15113 15.0084 3.00553 14.9323 2.89041C14.8557 2.77529 14.7257 2.70596 14.5867 2.70596H3.87911L3.57616 0.926689C3.53416 0.680267 3.31887 0.5 3.06653 0.5H0.516923C0.231332 0.5 0 0.729089 0 1.01177C0 1.2943 0.231332 1.52368 0.516777 1.52368H2.62939L4.10723 10.207C4.14924 10.4532 4.36468 10.6338 4.61686 10.6338H10.9565C11.2421 10.6338 11.4734 10.4046 11.4734 10.122C11.4734 9.83934 11.2421 9.61011 10.9565 9.61011H5.054L4.86439 8.49601H12.4182C12.5832 8.49601 12.7323 8.39909 12.7979 8.24887Z" fill="white"/>
</svg>

<svg width="15" height="14" viewBox="0 0 15 14" fill="none" xmlns="http://www.w3.org/2000/svg"><path d="M5.771 13.5c.638 0 1.155-.512 1.155-1.143s-.517-1.143-1.155-1.143c-.637 0-1.154.512-1.154 1.143S5.134 13.5 5.771 13.5zm4.342 0c.637 0 1.154-.512 1.154-1.143s-.517-1.143-1.154-1.143c-.638 0-1.155.512-1.155 1.143s.517 1.143 1.155 1.143zm2.685-5.251l2.168-4.971a.406.406 0 00-.034-.388.415.415 0 00-.345-.184H3.879L3.576.926A.515.515 0 003.066.5H.517A.514.514 0 000 1.012c0 .282.231.512.517.512h2.112l1.478 8.683a.516.516 0 00.51.427h6.34c.285 0 .516-.23.516-.512a.514.514 0 00-.517-.512H5.054l-.19-1.114h7.554a.414.414 0 00.38-.247z" fill="#fff"/></svg>
